X:1
T:Title
%%score ( 1 2 ) ( 3 4 )
L:1/8
Q:1/4=100
M:4/4
K:Ab
V:1 treble nm="Grand Piano, Soprano"
V:2 treble 
V:3 bass nm="Choir Pad, Ransomed and Redeemed"
V:4 bass 
V:1
 [CA]>[DB] [Ec]2 [Ec]2 [Fd]>[Fc] | [Fd]>[Af] [Ae]6 | [Bd]>[Ac] [GB]2 [Ac]2 [Bd]>[Ac] | %3
w: By~Charles~Conway * * * * *|||
 [ce]>[Bd] [Ac]6 | [EA]>[EB] [Ac]2 [Ec]2 [Fd]>[Fc] | [Fd]>[Af] [Ae]6 | %6
w: |||
 [Ac]>[Ac] [GB]2 [Gd]2 [Ec]2 | [DB]2 [CA]6 | z2 [Ec]4- [Ec]>[DB] | [CA]>[CE] [DB]6 | %10
w: ||||
 z2 [Ed]4- [Ed]>[EB] | [EG]>E [Ec]6 | z2 [Ec]>[Ec] [Ec]>[Ec] [_Ge]2 | %13
w: |||
 [_Ge]2 [Fd]>[Fd] [Fd]>[Fd] [DF]2 | [Fd]2 [Ec]2- [Ec][CA] [Ec]2 | z2 A6- | A6 z2 |] %17
w: ||||
V:2
 x8 | x8 | x8 | x8 | x8 | x8 | x8 | x8 | x8 | x8 | x8 | x8 | x8 | x8 | x8 | [DB]2 C2 D2 C2- | %16
 C6 z2 |] %17
V:3
 [A,,A,]>[A,,A,] [A,,A,]2 [A,,A,]2 [D,A,]>[D,A,] | [D,A,]>[D,D] [A,C]6 | %2
 [E,E]>[E,C] [E,C]2 [E,C]2 [E,E]>[E,E] | [E,E]>[E,E] [A,E]6 | %4
 [A,C]>[A,D] [A,E]2 [A,C]2 [D,A,]>[D,A,] | [D,A,]>[D,D] [A,C]6 | %6
 [A,E]>[A,E] [B,E]2 [E,B,]2 [E,A,]2 | [E,G,]2 [A,,A,]6 | z2 A,>A, A,>A, A,2 | %9
 z2 [E,G,]>[E,G,] [E,G,]>[E,G,] [E,G,]2 | z2 [E,B,]>[E,B,] [E,B,]>[E,B,] [E,B,]2 | %11
 z2 A,>A, A,>A, A,2 | z2 A,>A, A,>A, [C,A,]2 | [C,A,]2 [D,A,]>[D,A,] [D,A,]>[D,A,] [D,A,]2 | %14
 [D,A,]2 [E,A,]2- [E,A,][E,A,] [E,A,]2 | [E,G,]2 A,2 F,2 E,2- | E,6 z2 |] %17
V:4
 x8 | x8 | x8 | x8 | x8 | x8 | x8 | x8 | x8 | x8 | x8 | x8 | x8 | x8 | x8 | z2 A,,6- | A,,6 z2 |] %17

